X:41
T:Mouth of the Tobique, The     Requested by Gary Blair
R:Breakdown
O:Oldtime
M:2/4
C:Traditional
K:G
DF|GFGA Bded|BdBG DGBG|AGFE DFAc|BdBG DGG2 DF|
GFGA Bded|BdBG DGBG|AGFE DFAc|BGGG G2 ()2:||
e>f|gfga gfeg|fdAd fagf eGFE DFAc|BGBc d2ef|
gfga gfeg|fdAd fagf|eGFE DFAc|BGGG G2 ()2:||
